X: 93
T: Pollonesse #93
M: 3/4
L: 1/16
R: Pollonesse
K: A
Q: 110
e2f2 e2d2 c2B2|ABcd e2fg a4|f2df e2ce d2cB|A2a2 agfe dcBA|
e2f2 e2d2 c2B2|ABcd e2fg a4|e2ef e2d2 c2BA|cBAG A4 A,4:|
A,DFD A,DFD A,DFD|A,EGE A,EGE A,EGE|A,DFD A,DFD A,DFD|A,EGE A,EGE A,EGE|
DFBF DFBF DFBF|Gcec Gcec Gcec|DFBF DFBF DFBF|Gcec Gcec Gcec|
c2Bc d2cd c2BA|FABA G4 G,4:|

